src/lib/packages/icons/src/assets/filled/message-clock.svg

<svg xmlns="http://www.w3.org/2000/svg" width="24" height="24" fill="none"><path fill="currentColor" d="M3 21V6c0-2 1-3 3-3h12c2 0 3 1 3 3v9c0 2-1 3-3 3H6l-3 3Zm9-14.5a4 4 0 1 0 0 8 4 4 0 0 0 0-8Zm1.354 4.646-.854-.854V9a.5.5 0 0 0-1 0v1.5c0 .133.053.26.146.354l1 1a.498.498 0 0 0 .708 0 .502.502 0 0 0 0-.708Z"/></svg>

<svg width="24" height="24" viewBox="0 0 24 24" fill="none" xmlns="http://www.w3.org/2000/svg">
<path d="M3 21V6C3 4 4 3 6 3H18C20 3 21 4 21 6V15C21 17 20 18 18 18H6L3 21ZM12 6.5C9.791 6.5 8 8.291 8 10.5C8 12.709 9.791 14.5 12 14.5C14.209 14.5 16 12.709 16 10.5C16 8.291 14.209 6.5 12 6.5ZM13.354 11.146L12.5 10.292V9C12.5 8.724 12.276 8.5 12 8.5C11.724 8.5 11.5 8.724 11.5 9V10.5C11.5 10.633 11.553 10.76 11.646 10.854L12.646 11.854C12.744 11.952 12.872 12 13 12C13.128 12 13.256 11.951 13.354 11.854C13.549 11.658 13.549 11.342 13.354 11.146Z" fill="currentColor"/>
</svg>
